prod/images/flags-1x1/kp.svg

<svg viewBox="0 0 512 512" xmlns="http://www.w3.org/2000/svg" xmlns:xlink="http://www.w3.org/1999/xlink"><clipPath id="a"><path d="m92.2 7.8h593.6v485.5h-593.6z"/></clipPath><g clip-path="url(#a)" fill-rule="evenodd" transform="matrix(.86254 0 0 1.0546 -79.5 -8.3)"><path d="m991.8 492.9h-987.6v-484.5h987.6z" fill="#fff" stroke="#000" stroke-width="1.1"/><path d="m991.8 405.2h-987.6v87.8h987.6z" fill="#3e5698"/><path d="m991.8 384.9h-987.6v-268.5h987.6z" fill="#c60000"/><path d="m991.8 8.4h-987.6v87.6h987.6z" fill="#3e5698"/><path d="m473 250.7c0 60.1-61.5 108.9-137.4 108.9-76 0-137.6-48.8-137.6-109 0-60.1 61.6-108.9 137.6-108.9s137.4 48.8 137.4 109z" fill="#fff"/><path d="m402.9 326.8-66.1-38.6-67.1 39 26.3-62.8-66.1-38.5 82.4-.3 26.2-63 24.5 62.8 82.4-.4-67.2 39z" fill="#c40000"/></g></svg>

<svg viewBox="0 0 512 512" xmlns="http://www.w3.org/2000/svg"><clipPath id="a"><path d="M92.2 7.8h593.6v485.5H92.2z"/></clipPath><g clip-path="url(#a)" fill-rule="evenodd" transform="matrix(.86254 0 0 1.0546 -79.5 -8.3)"><path d="M991.8 492.9H4.2V8.4h987.6z" fill="#fff" stroke="#000" stroke-width="1.1"/><path d="M991.8 405.2H4.2V493h987.6z" fill="#3e5698"/><path d="M991.8 384.9H4.2V116.4h987.6z" fill="#c60000"/><path d="M991.8 8.4H4.2V96h987.6z" fill="#3e5698"/><path d="M473 250.7c0 60.1-61.5 108.9-137.4 108.9-76 0-137.6-48.8-137.6-109 0-60.1 61.6-108.9 137.6-108.9S473 190.5 473 250.7z" fill="#fff"/><path d="M402.9 326.8l-66.1-38.6-67.1 39 26.3-62.8-66.1-38.5 82.4-.3 26.2-63 24.5 62.8 82.4-.4-67.2 39z" fill="#c40000"/></g></svg>
